chrome/icons/help.svg

<svg height="16" viewBox="256 64 512 896" width="16" xmlns="http://www.w3.org/2000/svg" xmlns:xlink="http://www.w3.org/1999/xlink">
  <path d="M704,316C704,290 698.833,265.583 688.5,242.75C678.167,219.917 664.25,200 646.75,183C629.25,166 608.833,152.583 585.5,142.75C562.167,132.917 537.667,128 512,128C485.333,128 460.333,133 437,143C413.667,153 393.333,166.667 376,184C358.667,201.333 345,221.667 335,245C325,268.333 320,293.333 320,320C320,328.667 316.833,336.167 310.5,342.5C304.167,348.833 296.667,352 288,352C277.333,352 269.333,348.25 264,340.75C258.667,333.25 256,324.667 256,315C256,280.333 262.917,247.75 276.75,217.25C290.583,186.75 309.25,160.167 332.75,137.5C356.25,114.833 383.417,96.9167 414.25,83.75C445.083,70.5834 477.667,64.0001 512,64C546.333,64.0001 578.917,70.5834 609.75,83.75C640.583,96.9167 667.75,114.833 691.25,137.5C714.75,160.167 733.417,186.75 747.25,217.25C761.083,247.75 768,280.333 768,315C768,342 765.167,365.583 759.5,385.75C753.833,405.917 745.667,424.333 735,441C724.333,457.667 711.417,473.5 696.25,488.5C681.083,503.5 664,519.5 645,536.5C635.333,545.167 625.833,553.583 616.5,561.75C607.167,569.917 598.167,578.667 589.5,588C578.5,600 570,611.583 564,622.75C558,633.917 553.5,645.25 550.5,656.75C547.5,668.25 545.667,680.5 545,693.5C544.333,706.5 544,720.667 544,736C544,744.667 540.833,752.167 534.5,758.5C528.167,764.833 520.667,768 512,768C504.667,768 498.917,766.667 494.75,764C490.583,761.333 487.417,757.75 485.25,753.25C483.083,748.75 481.667,743.667 481,738C480.333,732.333 480,726.667 480,721L480,704C480,677.667 483.167,654.417 489.5,634.25C495.833,614.083 504.25,595.917 514.75,579.75C525.25,563.583 537.25,548.917 550.75,535.75C564.25,522.583 578,509.917 592,497.75C606,485.583 619.667,473.5 633,461.5C646.333,449.5 658.25,436.417 668.75,422.25C679.25,408.083 687.75,392.417 694.25,375.25C700.75,358.083 704,338.333 704,316ZM464,912C464,898.667 468.667,887.333 478,878C487.333,868.667 498.667,864 512,864C525.333,864 536.667,868.667 546,878C555.333,887.333 560,898.667 560,912C560,925.333 555.333,936.667 546,946C536.667,955.333 525.333,960 512,960C498.667,960 487.333,955.333 478,946C468.667,936.667 464,925.333 464,912Z" fill="context-fill" fill-opacity="context-fill-opacity">
  </path>
</svg>

<svg xmlns="http://www.w3.org/2000/svg" width="16" height="16" viewBox="256 64 512 896"><path fill="context-fill" fill-opacity="context-fill-opacity" d="M704 316q0-39-15.5-73.25T646.75 183t-61.25-40.25T512 128q-40 0-75 15t-61 41-41 61-15 75q0 13-9.5 22.5T288 352q-16 0-24-11.25T256 315q0-52 20.75-97.75t56-79.75 81.5-53.75T512 64t97.75 19.75 81.5 53.75 56 79.75T768 315q0 40.5-8.5 70.75T735 441t-38.75 47.5-51.25 48a3163 3163 0 0 1-28.5 25.25q-14 12.25-27 26.25-16.5 18-25.5 34.75t-13.5 34-5.5 36.75-1 42.5q0 13-9.5 22.5T512 768q-11 0-17.25-4t-9.5-10.75T481 738t-1-17v-17q0-39.5 9.5-69.75t25.25-54.5 36-44a976 976 0 0 1 41.25-38q21-18.25 41-36.25t35.75-39.25 25.5-47T704 316M464 912q0-20 14-34t34-14 34 14 14 34-14 34-34 14-34-14-14-34"/></svg>
